shader_type spatial;
render_mode unshaded;

uniform sampler2D height_map;
uniform sampler2D surface_map;
uniform float height_scale = 1.0;

void vertex() {
	float height = texture(height_map, VERTEX.xz).g;
	VERTEX.y += height * height_scale;
}

void fragment() {
	vec3 color = texture(surface_map, UV).rgb;
	ALBEDO = color;
}